assets/icons/qvision/network_locked.svg

<svg xmlns="http://www.w3.org/2000/svg" height="24" viewBox="0 0 24 24" width="24"><path d="M0 0h24v24H0zm0 0h24v24H0z" fill="none"/><path d="M19.5 10c.17 0 .33.03.5.05V1L1 20h13v-3c0-.89.39-1.68 1-2.23v-.27c0-2.48 2.02-4.5 4.5-4.5zm2.5 6v-1.5c0-1.38-1.12-2.5-2.5-2.5S17 13.12 17 14.5V16c-.55 0-1 .45-1 1v4c0 .55.45 1 1 1h5c.55 0 1-.45 1-1v-4c0-.55-.45-1-1-1zm-1 0h-3v-1.5c0-.83.67-1.5 1.5-1.5s1.5.67 1.5 1.5V16z"/></svg>

<svg width="24" height="24" viewBox="0 0 24 24" fill="none" xmlns="http://www.w3.org/2000/svg">
<g clip-path="url(#clip0_147_5977)">
<path d="M19.5 10C19.67 10 19.83 10.03 20 10.05V1L1 20H14V17C14 16.11 14.39 15.32 15 14.77V14.5C15 12.02 17.02 10 19.5 10ZM22 16V14.5C22 13.12 20.88 12 19.5 12C18.12 12 17 13.12 17 14.5V16C16.45 16 16 16.45 16 17V21C16 21.55 16.45 22 17 22H22C22.55 22 23 21.55 23 21V17C23 16.45 22.55 16 22 16ZM21 16H18V14.5C18 13.67 18.67 13 19.5 13C20.33 13 21 13.67 21 14.5V16Z" fill="#323232"/>
</g>
<defs>
<clipPath id="clip0_147_5977">
<rect width="24" height="24" fill="white"/>
</clipPath>
</defs>
</svg>
